packages/ffe-icons/icons/filled/md/keyboard_command_key.svg

<svg xmlns="http://www.w3.org/2000/svg" height="24" viewBox="0 -960 960 960" width="24"><path d="M260-130.001q-54.154 0-92.076-37.923-37.923-37.922-37.923-92.076 0-54.154 37.923-92.076 37.922-37.923 92.076-37.923h70.001v-180.002H260q-54.154 0-92.076-37.923-37.923-37.922-37.923-92.076 0-54.154 37.923-92.076 37.922-37.923 92.076-37.923 54.154 0 92.076 37.923 37.923 37.922 37.923 92.076v70.001h180.002V-700q0-54.154 37.923-92.076 37.922-37.923 92.076-37.923 54.154 0 92.076 37.923 37.923 37.922 37.923 92.076 0 54.154-37.923 92.076-37.922 37.923-92.076 37.923h-70.001v180.002H700q54.154 0 92.076 37.923 37.923 37.922 37.923 92.076 0 54.154-37.923 92.076-37.922 37.923-92.076 37.923-54.154 0-92.076-37.923-37.923-37.922-37.923-92.076v-70.001H389.999V-260q0 54.154-37.923 92.076-37.922 37.923-92.076 37.923Zm0-59.998q28.846 0 49.424-20.577 20.577-20.578 20.577-49.424v-70.001H260q-28.846 0-49.424 20.577-20.577 20.578-20.577 49.424t20.577 49.424q20.578 20.577 49.424 20.577Zm440 0q28.846 0 49.424-20.577 20.577-20.578 20.577-49.424t-20.577-49.424Q728.846-330.001 700-330.001h-70.001V-260q0 28.846 20.577 49.424 20.578 20.577 49.424 20.577Zm-310.001-200h180.002v-180.002H389.999v180.002ZM260-629.999h70.001V-700q0-28.846-20.577-49.424-20.578-20.577-49.424-20.577t-49.424 20.577Q189.999-728.846 189.999-700t20.577 49.424q20.578 20.577 49.424 20.577Zm369.999 0H700q28.846 0 49.424-20.577 20.577-20.578 20.577-49.424t-20.577-49.424Q728.846-770.001 700-770.001t-49.424 20.577Q629.999-728.846 629.999-700v70.001Z"/></svg>

<svg xmlns="http://www.w3.org/2000/svg" height="24" viewBox="0 -960 960 960" width="24"><path d="M260-130q-54.15 0-92.08-37.92Q130-205.85 130-260t37.92-92.08Q205.85-390 260-390h70v-180h-70q-54.15 0-92.08-37.92Q130-645.85 130-700t37.92-92.08Q205.85-830 260-830t92.08 37.92Q390-754.15 390-700v70h180v-70q0-54.15 37.92-92.08Q645.85-830 700-830t92.08 37.92Q830-754.15 830-700t-37.92 92.08Q754.15-570 700-570h-70v180h70q54.15 0 92.08 37.92Q830-314.15 830-260t-37.92 92.08Q754.15-130 700-130t-92.08-37.92Q570-205.85 570-260v-70H390v70q0 54.15-37.92 92.08Q314.15-130 260-130Zm0-60q28.85 0 49.42-20.58Q330-231.15 330-260v-70h-70q-28.85 0-49.42 20.58Q190-288.85 190-260t20.58 49.42Q231.15-190 260-190Zm440 0q28.85 0 49.42-20.58Q770-231.15 770-260t-20.58-49.42Q728.85-330 700-330h-70v70q0 28.85 20.58 49.42Q671.15-190 700-190ZM390-390h180v-180H390v180ZM260-630h70v-70q0-28.85-20.58-49.42Q288.85-770 260-770t-49.42 20.58Q190-728.85 190-700t20.58 49.42Q231.15-630 260-630Zm370 0h70q28.85 0 49.42-20.58Q770-671.15 770-700t-20.58-49.42Q728.85-770 700-770t-49.42 20.58Q630-728.85 630-700v70Z"/></svg>
